src/front_assets/svg/playlist.svg

<?xml version="1.0" encoding="utf-8"?>
<!-- Uploaded to: SVG Repo, www.svgrepo.com, Generator: SVG Repo Mixer Tools -->
<svg width="800px" height="800px" viewBox="0 0 24 24" fill="none" xmlns="http://www.w3.org/2000/svg">
<g opacity="0.5">
<path fill-rule="evenodd" clip-rule="evenodd" d="M15.75 6C15.75 6.41421 15.4142 6.75 15 6.75H3C2.58579 6.75 2.25 6.41421 2.25 6C2.25 5.58579 2.58579 5.25 3 5.25H15C15.4142 5.25 15.75 5.58579 15.75 6Z" fill="#1C274C"/>
<path fill-rule="evenodd" clip-rule="evenodd" d="M13.75 10C13.75 10.4142 13.4142 10.75 13 10.75H3C2.58579 10.75 2.25 10.4142 2.25 10C2.25 9.58579 2.58579 9.25 3 9.25H13C13.4142 9.25 13.75 9.58579 13.75 10Z" fill="#1C274C"/>
<path fill-rule="evenodd" clip-rule="evenodd" d="M9.75 14C9.75 14.4142 9.41421 14.75 9 14.75H3C2.58579 14.75 2.25 14.4142 2.25 14C2.25 13.5858 2.58579 13.25 3 13.25H9C9.41421 13.25 9.75 13.5858 9.75 14Z" fill="#1C274C"/>
<path fill-rule="evenodd" clip-rule="evenodd" d="M8.75 18C8.75 18.4142 8.41421 18.75 8 18.75H3C2.58579 18.75 2.25 18.4142 2.25 18C2.25 17.5858 2.58579 17.25 3 17.25H8C8.41421 17.25 8.75 17.5858 8.75 18Z" fill="#1C274C"/>
</g>
<path d="M17 7.25C17.4142 7.25 17.75 7.58579 17.75 8C17.75 9.79493 19.2051 11.25 21 11.25C21.4142 11.25 21.75 11.5858 21.75 12C21.75 12.4142 21.4142 12.75 21 12.75C19.7428 12.75 18.5997 12.2616 17.75 11.4641V16.5C17.75 18.2949 16.2949 19.75 14.5 19.75C12.7051 19.75 11.25 18.2949 11.25 16.5C11.25 14.7051 12.7051 13.25 14.5 13.25C15.1443 13.25 15.7448 13.4375 16.25 13.7609V8C16.25 7.58579 16.5858 7.25 17 7.25Z" fill="#1C274C"/>
</svg>

<svg xmlns="http://www.w3.org/2000/svg" width="800" height="800" fill="none" viewBox="0 0 24 24"><g fill="#1C274C" fill-rule="evenodd" clip-rule="evenodd" opacity=".5"><path d="M15.75 6a.75.75 0 0 1-.75.75H3a.75.75 0 0 1 0-1.5h12a.75.75 0 0 1 .75.75M13.75 10a.75.75 0 0 1-.75.75H3a.75.75 0 0 1 0-1.5h10a.75.75 0 0 1 .75.75M9.75 14a.75.75 0 0 1-.75.75H3a.75.75 0 0 1 0-1.5h6a.75.75 0 0 1 .75.75M8.75 18a.75.75 0 0 1-.75.75H3a.75.75 0 0 1 0-1.5h5a.75.75 0 0 1 .75.75"/></g><path fill="#1C274C" d="M17 7.25a.75.75 0 0 1 .75.75A3.25 3.25 0 0 0 21 11.25a.75.75 0 0 1 0 1.5c-1.257 0-2.4-.488-3.25-1.286V16.5a3.25 3.25 0 1 1-1.5-2.74V8a.75.75 0 0 1 .75-.75"/></svg>
